X:1
T:21 - Vienne, Montan
T:Luca Marenzio (1556 - 1599) 1º Libro di Madrigali a quattro voci (Venetia, 1592)
T:Jacopo Sannazaro
T:21 - Vienne, Montan
T:© 2018 Ed. Marcos Mato
T:© 2018 Ed. Marcos Mato
T:© 2018 Ed. Marcos Mato
T:© 2018 Ed. Marcos Mato
T:© 2018 Ed. Marcos Mato
T:© 2018 Ed. Marcos Mato
T:© 2018 Ed. Marcos Mato
T:© 2018 Ed. Marcos Mato
T:© 2018 Ed. Marcos Mato
T:© 2018 Ed. Marcos Mato
T:© 2018 Ed. Marcos Mato
T:© 2018 Ed. Marcos Mato
T:© 2018 Ed. Marcos Mato
T:© 2018 Ed. Marcos Mato
C:Luca Marenzio (1556 - 1599)
C:1º Libro di Madrigali a quattro voci (Venetia, 1592)
Z:Jacopo Sannazaro
Z:© 2018 Ed. Marcos Mato
%%score [ 1 2 3 4 ]
L:1/8
M:4/4
K:F
V:1 alto1 nm="Soprano" snm="Sop."
V:2 alto nm="Alto" snm="A."
V:3 tenor transpose=-12 nm="Tenor" snm="T."
V:4 bass nm="Basso" snm="Bajo"
V:1
 c4 | [C_e]2 |[M:4/2]"^Prima parte" c8 A4 G4 | F8 z8 | z8 c4 A2 d2 | c4 c3 B A2 d4 c2 | %6
w: ||Vien- ne, Mon-|tan,|vien- ne, Mon-|tan, men- tre le nos- tre|
 =B3 B c4 A2"^b" _B2 c2"^b" B2 | A3 A A4 d4 G4 | c3 B A4 z2 G2 c3 B | A4 z4 z2 A2 F3 F | G4 z4 z8 | %11
w: tor- mo- ra ru- * * *|* mi- nan l'herb', e\_i|cac- cia- tor, e\_i cac- cia-|tor s'im- bos- ca-|no,|
 z8 z2 G2 A2 =B2 | c3 =B c2 d2 c2 B2 A3 A | G4 z2 F2 AGA_B c4 | B4 z2 F2 AGAB c4 | A8 | %16
w: mos- trand' a\_i|ca- ni le la- te- bre\_e l'or- mo-|ra. Can- ta- * * * *|te, can- ta- * * * *|te,|
[M:3/2] d4 _e4 d4 | c6 B2 c4- | c2 A2 B4 c4 |[M:4/2] F3 F F4 A2 A2 =B4 | %20
w: can- ta- te,\_ac-|ciò che\_i mon-|* ti\_ho- mai co-|nos- ca- no quan- to'l se-|
"^§" =B2 c2 A3 G A2 G2 ^F3 F | G4 z2 G2 AGA_B c4 | c4 z2 c2 AGAB c4- | c4 A2 A2 B2 c3 B A2- | %24
w: col per- du- to\_in voi ri- no- va-|si; can- ta- * * * *|te can- ta- * * * *|* te fin che\_i cam- pi si|
 A2 c2 =B3 B c4 z4 | z16 | G4 c4 z2 c2 A3 c | B2 A2 G2 F2 G3 G G4- | G4 z4 z8 | z8 A2 AB c2 A2 | %30
w: _ rin- fos- ca- no.||Mon- tan, cons- tui che|me- co\_a can- tar pro- va- si,|_|guar- da le ca- pre|
 B2 c2 d2 c2 B3 B A4 | z4 F8 E2 E2 | E8 ^F4 F2 G2 | A12 G4 | G12 G4 | G16 || %36
w: d'un pas- tor er- ra- ti- co.|Mi- se- ra|man- dra, ch'in tal|gui- da|tro- va-|si!|
"^Seconda parte" z8 A4 A2 A2 | B4 A4 z4 z2 F2 | G2 A2 B2 G2 c3 F G3 G | C8 z8 | z4 z2 c2 A2 B2 c4 | %41
w: Cor- bo mal-|vag- gio, ur-|sac- chio\_as- pr'e sel- va- * * ti-|co,|co- tes- ta lin-|
 A8 z2 A2 A2 B2 | c4 A4 G3 G A2 A2 | B3 B A4 z4 G4 | G6 G2 A4 A4 | d6 B2 A6 A2 | G6 G2 G8 | z16 | %48
w: gua, co- tes- ta|lin- gua ve- le- no- sa|mor- di- la, che|trans- por- tar si|fa dal cor fa-|na- ti- co,||
 z16 | d2 d2 d2 d2 d3 d d4 | z16 | z8 d2 d2 d2 d2 | d3 d d4 d2 d2 d2 d2 | d3 d d8 B4 | %54
w: |che co\_i gri- di\_as- sor- di- la,||che co\_i gri- di\_as-|sor- di- la, che co\_i gri- di\_as-|sor- di- la! Fug-|
 A3 c B2 A2 G4 G4 | z4 z2 G2 A3 c B2 A2 | G4 G4 A2 =B2 c3 c | F8 d2 dc _B2 B2 | %58
w: gi- to\_è dal ro- mo- re,|fug- gi- to\_è dal ro-|mo- re\_A- pol- lo\_e De- li-|a. Get- ta la li- ra,|
 d2 dc B3 c d3 c BABc | BABA =B4 c4 z2 F2 | A4 =B4 c4 A4 | F3 G A3 _B c3 B/A/ G3 G | A8 z4 F4- | %63
w: get- ta la li- * * * * * * *|* * * * * ra ho-|mai, ch'in- darn' ac-|cor- * * * * * * * di-|la. Hog-|
 F4 F4 _E8 |"^b" _E4"^b" E4 D4 D4 | z4 A3 A B2 c3 c c2 | z4 z2 c2 c4 A2 A2 | c3 B A6 G2 G4 | %68
w: * gi qui|non si can- ta,|an- zi si pre- li- a.|Ces- sa- te, ces-|sa- te\_ho- mai, per Dio,|
 z2 A2 F8 D4 | D16 | C8 F8 | A6 B2 c4 c4 | z8 A4 c4 | z8 z4 z2 A2 | c4 z2 F2 A3 A B2 A2 | %75
w: ces- sa- te\_al|quan-|to; co-|min- cia,\_E- len- co,|e tu,|e|tu, e tu ris- pon- di,|
 G6 G2 A8 ||"^Terza & ultima parte" z4 F4 A4 B4 | c8 A4 z2 A2 | B2 c3 c B2 A3 G AG A2 | %79
w: O- fe- lia.|La san- ta|Pa- le in-|ten- ta\_o- de\_il mio can- * * * *|
 G8 G2 GF G2 A2 | B3 B B2 c2 G4 G4 | c4 c2 c2 c3 B A3 G | A2 B2 G4 F8 | z16 | z16 | z16 | z16 | %87
w: to et di bei ra- mi|le mie chiom' a- dor- na,|che nes- sun al- tro se ne|può dar van- to.|||||
 z16 | z16 | z8 c8 | A3 G F4 F4 c4- | c2 c2 c3 =B c4 G4 | A4 G2 F2 G2 A2 _B4- | %93
w: ||Quan-|do tal' hor' a la|_ sta- gion no- vel- la|mun- go le ca- pre mie,|
 B2 A2 c3 B A3 G AGAB | G4 G4 A4 c2 B2 | A3 c B2 A2 G3 F G4 | F8 z8 | z16 | z16 | z16 | z16 | z16 | %102
w: _ mi schem' e ri- * * * * *|* de la mia su-|a- ve\_e dol- ce pas- to- rel-|la.||||||
 z16 | z8 c8 | A4 B4 c8 | A8 z8 | z8 z2 c2 A3 A | G2 c2 =B4 c4 z4 | z8 z4 G4 | %109
w: |Un|bel co- lom-|bo|in u- na|quer- cia\_an- ti- ca|vi-|
 G2 F2 G3 F G2 A2 B2 c2 | G4 G4 z8 | z16 | c4 c3 B A2 A2 d3 c | B2 A2 G4 F4 z4 | z16 | z8 | %116
w: di\_an- ni- dar poc' an- zi;\_il qual ri-|ser- bo||per la cru- del et as- pra|mia ne- mi- ca.|||
[M:3/2] A6 B2 c4 | d6 c2 B4- | B2 c2 B4 G4 | A8 A4 | A4 A4 G4 | G6 G2 A4- | A2 c2 =B6 B2 | %123
w: Fres- che ghir-|lan- de di|_ no- vel- li|fio- ri|i vos- tri\_al-|ta- ri,\_o sa-|* cre Nin- fe,\_ha-|
[M:4/2] c4 G4 A2 A2 _B4- | B4 B2 A2 G3 A F2 F2 | E4 F4 A2 A2 B4- | B4 B2 A2 G3 A F2 F2- | %127
w: vran- no, se pie- to-|* se sa- re- te\_a'\_i nos- tri\_a-|mo- ri, se pie- to-|* se sa- re- te\_a'\_i nos- tri\_a-|
 F2 ED E4 F8 |] %128
w: * * * mo- ri.|
V:2
 F4 | [A,A]2 |[M:4/2] F8 F4 E4 | F8 z8 | z8 F4 F2 F2 | F4 A3 G F2 F4 A2 | G3 G G4 C2 B,2 A,2 B,2 | %7
w: ||Vien- ne, Mon-|tan,|vien- ne, Mon-|tan, men- tre le nos- tre|tor- mo- ra ru- * * *|
 C3 A, F4 F4 E4 | z2 C2 F3 E D4 z2 C2 | F3 E D4 z2 A,2 D3 D | C4 z4 z8 | z8 z2 G2 F2 D2 | %12
w: * mi- nan l'her- be,|ei cac- cia- tor s'im-|bos- ca- no, s'im- bos- ca-|no|mos- trand' ai|
 E3 D E2 F2 E2 G2 ^F3 F | G4 z2 D2 =FEFG A4 | D4 z2 D2 FEFG A4 | F8 |[M:3/2] F4 G4 F4 | F6 D2 F4- | %18
w: ca- ni le la- te- bre\_e l'or- mo-|ra. Can- ta- * * * *|te, can- ta- * * * *|te,|can- ta- te,\_ac-|ciò che\_i mon-|
 F2 C2 _E4 E4 |[M:4/2] D3 D D4 F2 F2 G4 | G2 G2 F3 G F2 D2 D3 D | D4 z2 D2 FEFG A4 | %22
w: * ti\_ho- mai co-|nos- ca- no quan- to'l se-|col per- du- to\_in voi ri- no- va-|si; can- ta- * * * *|
 F4 z2 E2 FEFG A4 | E4 z2 F2 G2 A3 G F2- | F2 E2 D3 D C4 z4 | z16 | z4 C4 F4 z2 F2 | %27
w: te, can- ta- * * * *|te fin che\_i cam- pi si|_ rin- fos- ca- no.||Mon- tan, cos-|
 D3 F E2 D2 C2 B,2 C3 C | C8 z8 | z4 D2 DE F2 D2 E2 F2 | G2 E2 DE F4 E2 F4 | z4 D8 ^C2 C2 | %32
w: tui che me- co\_a can- tar pro- va-|si,|guar- da le ca- pre d'un pas-|tor er- ra- * * ti- co.|Mi- se- ra|
"^#" ^C8 D4 D2 D2 | F12 E4 | D12 D4 | E16 || z8 F4 F2 F2 | D4 F4 G4 F4 | _E4 D4 C3 D B,3 B, | %39
w: man- dra, ch'in tal|gui- da|tro- var-|si!|Cor- bo mal-|vag- gio,\_ur- sa- chio\_as-|pr'e sel- va- * * ti-|
 A,8 z8 | z4 F4 F2 G2 A4 | F8 z2 C2 C2 D2 | E4 C4 =B,3 B, C2 C2 | D3 D C4 z4 E4 | D6 D2 F6 D2 | %45
w: co,|co- tes- ta lin-|gua, co- tes- ta|lin- gua ve- le- no- sa|mor- di- la, che|trans- por- tar si|
 D6 G2 E6 F2 | D6 D2 E8 | z8 C8- | C4 B,2 A,2 B,8 | A,8 z8 | F12 E2 D2 | E8 D8 | %52
w: fa dal cor fa-|na- ti- co.|Mi-|* se- ra sel-|va,|mi- se- ra|sel- va,|
 z4 B,2 B,2 F2 F2 F3 F | F8 z4 F4 | F3 E D2 F2 E4 E4 | z4 z2 D2 F3 E D2 F2 | E4 E4 F2 F2 _E3 E | %57
w: che co\_i gri- di\_as- sor- di-|la! Fug-|gi- to\_è dal ro- mo- re,|fug- gi- to\_è dal ro-|mo- re\_A- pol- lo\_e De- li-|
 D8 D8 | D4 D4 DCD_E DCDE | DCDC D4 C4 z2 C2 | F4 D4 E4 C2 F2- | FG A3 G F3 E F4 E2 | F8 z4 D4- | %63
w: a. Get-|ta la li- * * * * * * *|* * * * * ra ho-|mai, ch'in- darn' ac- cor-|* * * * * * * di-|la. Hog-|
 D4 D4 B,8 | B,4 C4 A,4 A,4 | z4 F3 F G2 A3 A A2 | z4 z2 E2 F8 | E2 C2 F3 G F2 D2 E4 | %68
w: * gi qui|non si can- ta,|an- zi si pre- li- a.|Ces- sa-|te, ces- sa- te\_ho- mai, per Dio,|
 z2 F2 D8 B,4 | B,16 | A,8 z4 F4 | F4 D4 C4 C4 | z8 F4 A4 | z8 z4 z2 F2 | A4 z2 A,2 C3 C D2 F2- | %75
w: ces- sa- te\_al-|quan-|to; co-|min- ci,\_E- len- co,|e tu,|e|tu, e tu ris- pon- di,|
 F2 ED E3 E F8 || F8 F4 G4 | F8 F4 z2 F2 | G2 A3 A G2 F3 E FE F2 | E8 E2 ED E2 F2 | %80
w: _ O- * * fe- lia.|La san- ta|Pa- le in-|ten- ta\_o- de'l mio can- * * * *|to et di bei ra- mi|
 G3 G G2 F2 E4 E4 | A4 A2 A2 A3 G F3 E | F2 D2 E4 F8 | z16 | z16 | z16 | z16 | z16 | z16 | z8 F8 | %90
w: le mie chiom' a- dor- na,|che nes- sun al- tro se ne|può dar van- to.|||||||Quan-|
 F3 F F4 F4 A4- | A2 F2 F3 D C4 C4 | F4 E2 D2 E2 F2 G4- | G2 F2 A3 G F3 E DEFD | E4 C4 F4 A2 G2 | %95
w: do tal' ho- ra\_a la|_ sta- gion no- vel- la|mun- go le ca- pre mie,|_ mi schern' e ri- * * * * *|* de la mia su-|
 F3 A G2 F2 E3 D E4 | F8 z8 | z16 | z16 | z16 | z16 | z16 | z16 | z8 F8 | F4 G4 F8 | F8 z8 | %106
w: a- ve\_e dol- ce pas- to- rel-|la.|||||||Un|bel co- lom-|bo|
 z8 z2 C2 F3 E | E2 E2 D4 C4 z4 | z8 z4 E4 | E2 D2 E3 D E2 F2 G2 F2 | E4 C4 z8 | z16 | %112
w: in u- na|quer- cia\_an- ti- ca|vi-|di\_an- ni- dar poc' an- zi;\_il qual ri-|ser- bo||
 F4 A3 G F2 F2 B,3 C | D2 F2 E4 F4 z4 | z16 | z8 |[M:3/2] F6 D2 F4 | F6 F2 F4- | F2 F2 G4 E4 | %119
w: per la cru- del et as- pra|mia ne- mi- ca.|||Fres- che ghir-|lan- de di|_ no- vel- li|
 F8 F4 | F4 F4 D4 | E6 E2 F4- | F2 E2 G6 G2 |[M:4/2] E4 E4 F2 F2 G4- | G4 G2 F2 E3 F D2 C2 | %125
w: fio- ri|i vos- tri\_al-|ta- ri,\_o sa-|* cre Nin- fe,\_ha-|vran- no, se pie- to-|* se sa- re- te\_a'\_i nos- tri\_a-|
 C4 C4 F2 F2 G4- | G4 G2 F2 E3 F D2 C2 | C8 C8 |] %128
w: mo- ri, se pie- to-|* se sa- re- te\_a'\_i nos- tri\_a-|mo- ri.|
V:3
 C4 | [C,F]2 |[M:4/2] z16 | C8 A,4 G,4 | F,8 A,4 C2 B,2 | A,4 A,3 B, C2 D4 F2 | %6
w: |||Vien- ne, Mon-|tan, vien- ne, Mon-|tan, men- tre le nos- tre|
 D3 D E4 A,2 G,2 F,2 G,2 | A,3 C D2 C4 =B,2 C4 | z4 z2 A,2 _B,3 B, A,4 | z2 A,2 B,3 B, C4 z4 | %10
w: tor- mo- ra ru- * * *|* mi- nan l'her- * be,|s'im- bos- ca- no,|s'im- bos- ca- no,|
 z2 C2 B,2 G,2 A,3 G, A,2 B,2 | A,2 C2 =B,3 B, C4 z4 | z8 z4 z2 A,2 | B,A,B,C D4 C4 z2 A,2 | %14
w: mos- trand' ai ca- ni le la-|te- bre l'or- mo- ra.|Can-|ta- * * * * te, can-|
 B,A,B,C D4 C8- | C8 |[M:3/2] B,4 B,4 B,4 | A,6 G,2 A,4- | A,2 A,2 G,4 A,4 | %19
w: ta- * * * * te,|_|can- ta- te,\_ac-|ciò che\_i mon-|* ti\_ho- mai co-|
[M:4/2] B,3 B, B,4 C2 D2 D4 | D2 E2 C3 C C2 B,2 A,3 A, | G,8 z4 z2 C2 | %22
w: nos- ca- no quan- to'l se-|col per- du- to\_in voi ri- no- va-|si; can-|
 A,G,A,B, C4 C2 C2 A,G,A,B, | C4 C4 z8 | z8 z2 A,2 B,4 | C3 B, A,2 C2 =B,3 B, C4 | z16 | z16 | %28
w: ta- * * * * te, can- ta- * * *|* te|fin che\_i|cam- pi si rin- fos- ca- no.|||
 z4 G,2 G,A, B,2 G,2 A,2 B,2 | C2 C2 B,3 C D3 C/B,/ A,4 | G,2 A,2 B,2 A,2 G,3 G, F,4 | %31
w: Guar- da le ca- pre d'un pas-|tor er- ra- ti- co, _ _ _|d'un pas- tor er- ra- ti- co.|
 z4 A,8 A,2 A,2 | A,8 A,4 A,2 B,2 | C8 C4 C4- | C4 =B,2 A,2 B,6 B,2 | C16 || C4 C2 C2 D4 C4 | %37
w: Mi- se- ra|man- dra, ch'in tal|gui- da tro-|* * * * var-|si!|Cor- bo mal- vag- gio,|
 z2 B,2 C2 D4 C4 B,2- | B,2 A,3 G, G,3 F, F,4 E,2 | F,8 z2 C2 A,2 B,2 | C4 A,4 z8 | %41
w: ur- sa- chio\_as- pro\_e sel-|* va- * * * * ti-|co, co- tes- ta|lin- gua,|
 z2 C2 A,2 B,2 C4 A,4 | G,3 G, A,2 A,2 D3 D F4 | z8 z4 C4 | =B,6 B,2 C2 A,2 F4- | F2 F2 D6 C2 C4- | %46
w: co- tes- ta lin- gua|ve- le- no- sa mor- di- la,|che|trans- por- tar si fa|_ dal cor fa- na-|
 C2"^§" =B,A, B,3 B, C8 | A,12 G,2 F,2 | G,16 | ^F,8 z4 D4- | D4 C2 B,2 C8- | C8 =B,8 | %52
w: * * * * ti- co.|Mi- se- ra|sel-|va, mi-|* se- ra sel-|* va,|
 D2 D2 D2 D2 D3 D D4 | B,2 B,2 D2 D2 D3 D D4 | z8 z4 z2 C2 | A,2 C2 B,3 B, C4 z4 | %56
w: che coi gri- di\_as- sor- di- la,|che coi gri- di\_as- sor- di- la!|A-|pol- lo\_e De- li- a,|
 z4 z2 C2 C2 F,2 G,3 A, | B,8 z4 B,2 B,A, | G,4 G,4 z8 | z4 z2 G,4 C4 A,2- | %60
w: A- pol- lo\_e De- li-|a. Get- ta la|li- ra|ho- mai, ch'in-|
 A,2 D4 G,4 C3 B, A,2- | A,G, F,3 G, A,3 B, C3 C C,2 | z8 z4 B,4- | B,4 B,4 G,8 | %64
w: * darn' ac- cor- * *|* * * * * * * di- la.|Hog-|* gi qui|
 G,4 G,4 ^F,4 F,3 F, | G,2 A,3 A, A,2 z4 A,3 A, | B,2 C3 C C2 z2 A,2 C4 | C2 A,2 C3 C D2 =B,2 C4 | %68
w: non si can- ta,\_an- zi|si pre- li- a, an- zi|si pre- li- a. Ces- sa-|te, ces- sa- te\_ho- mai, per Dio,|
 z2 C2 _B,8 F,4 | F,16 | F,8 z8 | z16 | A,4 C4 z4 z2 A,2 | C3 C D2 C2 B,3 B, C4 | %74
w: ces- sa- te\_al-|quan-|to;||e tu, e|tu ris- pon- di,\_O- fe- li- a,|
 z2 A,2 C4 A,4 F,2 C2 | C6 C2 C8 || z16 | z16 | z16 | z16 | z16 | z16 | z16 | z4 F,4 A,6 A,2 | %84
w: e tu ris- pon- di,\_O-|fe- li- a.||||||||E'l se- mi-|
 A,4 G,4 F,4 C4- | C4 C3 =B, C4 C4 | G,2 G,F, G,2 A,2 G,3 C _B,2 A,2 | G,4 G,4 A,4 C2 B,2 | %88
w: ca- pro Pan al-|* za le cor- na|a la sam- po- gna mia so- no- ra\_e|bel- la, e cor- re\_e|
 A,3 G, F,3 G, A,3 B, G,4 | F,8 z8 | z16 | z16 | z16 | z16 | z16 | z16 | z8 C8 | A,4 B,4 C6 B,2 | %98
w: sal- ta\_e fug- ge\_e poi ri- tor-|na.|||||||Tir-|re- na mia col|
 A,2 G,2 A,6 G,2 A,4 | G,8 G,4 G,4 | A,2 B,4 A,2 G,3 A, B,2 C2 | G,4 G,4 A,4 C3 B, | %102
w: sos- pi- rar m'uc- ci-|de, quan- do|par che vèr me con gl'oc- chi|di- ca: Chi dal mio|
 A,2 G,2 A,3 C B,2 A,2 G,4 | F,8 z8 | z16 | z4 C4 A,4 B,4 | C8 A,4 z4 | z8 z2 C2 A,3 A, | %108
w: fi- do\_a- mant' hor mi di- vi-|de?||Et io nel|bos- co|un bel gio-|
 G,2 C2 =B,4 C8 | z16 | z4 z2 G,2 G,2 F,2 G,3 F, | G,2 A,2 B,2 C2 G,4 G,4 | z16 | z8 z2 C2 C3 B, | %114
w: ven- co\_a- der- bo||per la mia donn'; il|qual fra tut- ti\_i to- ri||in- ce- de|
 A,2 A,2 D3 C B,2 A,2 G,4 | F,8 |[M:3/2] C6 B,2 A,4 | B,6 C2 D4- | D2 C2 D4 C4 | C8 C4 | %120
w: con le cor- na\_al- to\_e su- per-|bo.|Fres- che ghir-|lan- de di|_ no- vel- li|fio- ri|
 C4 C4 =B,4 | C6 C2 C4- | C2 C2 D6 D2 |[M:4/2] C4 C4 C2 C2 _E4- | E4"^b" _E2 C2 C3 C B,2 A,2 | %125
w: i vos- tri\_al-|ta- ri,\_o sa-|* cre Nin- fe,\_ha-|vran- no, se pie- to-|* se sa- re- te\_a'\_i nos- tri\_a-|
 G,4 F,4 C2 C2 _E4- | E4"^b" _E2 C2 C3 C B,2 A,2 | G,8 F,8 |] %128
w: mo- ri, se pie- to-|* se sa- re- te\_a'\_i nos- tri\_a-|mo- ri.|
V:4
 F,4 | [F,,C]2 |[M:4/2] z16 | F,8 F,4 E,4 | F,8 F,4 F,2 B,,2 | F,4 F,3 G, A,2 B,4 F,2 | %6
w: |||Vien- ne, Mon-|tan, vien- ne, Mon-|tan, men- tre le nos- tre|
 G,3 G, C,4 F,2 G,2 A,2 G,2 | F,3 F, F,4 D,4 C,4 | z4 z2 D,2 G,3 G, F,4 | z2 D,2 G,3 G, F,4 z4 | %10
w: tor- mo- ra ru- * * *|* mi- nan l'her- be,|s'im- bos- ca- no,|s'im- bos- ca- no,|
 z2 C,2 D,2 E,2 F,3 E, F,2 G,2 | F,2 E,2 D,3 D, C,4 z4 | z8 z4 z2 D,2 | G,F,G,A, B,4 F,4 z2 F,2 | %14
w: mos- trand' a\_i ca- ni le la-|te- bre\_a l'or- mo- ra.|Can-|ta- * * * * te, can-|
 G,F,G,A, B,4 F,8- | F,8 |[M:3/2] B,,4 _E,4 B,,4 | F,6 G,2 F,4- | F,2 F,2 _E,4 C,4 | %19
w: ta- * * * * te,|_|can- ta- te,\_ac-|ciò che\_i mon-|* ti\_ho- mai co-|
[M:4/2] B,,3 B,, B,,4 F,2 D,2 G,4 | G,2 C,2 F,3 E, F,2 G,2 D,3 D, | G,,8 z4 F,4 | %22
w: nos- ca- no quan- to'l se-|col per- du- to\_in voi ri- no- va-|si; can-|
 F,E,F,G, A,4 F,2 F,2 F,E,F,G, | A,4 F,4 z8 | F,4 G,4 A,4 G,4 | F,6 E,2 D,3 D, C,4 | z16 | z16 | %28
w: ta- * * * * te, can- ta- * * *|* te|fin che\_i cam- po|si rin- fos- ca- no.|||
 C,2 C,D, E,2 C,2 D,2 E,2 F,2 G,2 | A,3 A, G,3 F,/E,/ D,4 z4 | z16 | D,12 A,,2 A,,2 | %32
w: Guar- da le ca- pre d'un pas- tor er-|ra- ti- co. _ _ _||Mi- se- ra|
 A,,8 D,4 D,2 G,2 | F,8 C,8 | G,,12 G,,4 | C,16 || z8 F,4 F,2 F,2 | G,4 F,4 _E,4 D,4 | %38
w: man- dra, ch'in tal|gui- da|tro- va-|si!|Cor- bo mal-|vag- gio,\_ur- sac- chi\_as-|
 C,4 B,,4 A,,3 B,, G,,3 G,, | F,,8 F,4 F,2 G,2 | A,4 F,4 z8 | F,4 F,2 G,2 A,4 F,4 | %42
w: pr'e sel- va- * * ti-|co, co- tes- ta|lin- gua,|co- tes- ta lin- gua|
 E,3 E, F,2 F,2 G,3 G, F,4 | B,,3 B,, F,4 z4 C,4 | G,6 G,2 F,4 D,4 | B,6 G,2 A,6 F,2 | %46
w: ve- le- no- sa mor- di- la,|mor- di- la, che|trans- por- tar si|fa dal cor fa-|
 G,6 G,2 C,8 | F,12 _E,2 D,2 | _E,8 D,8- | D,8 B,8- | B,4 A,2 G,2 A,8 | G,16 | %52
w: na- ti- co.|Mi- se- ra|sel- va,|_ mi-|* se- ra sel-|va,|
 D,2 D,2 G,2 G,2 B,3 B, B,4 | B,,2 B,,2 B,2 B,2 B,3 B, B,4 | z8 z4 z2 C,2 | F,2 A,2 G,3 G, F,4 z4 | %56
w: che coi gri- di\_as- sor- di- la,|che coi gri- di\_as- sor- di- la!|A-|pol- lo\_e De- li- a,|
 z4 z2 C,2 F,2 D,2 C,3 C, | B,,8 B,2 B,A, G,2 G,2 | B,2 B,A, G,3 C, G,8- | G,8 C,4 F,4 | %60
w: A- pol- lo\_e De- li-|a. Get- ta la li- ra,|get- ta la li- * ra|_ ho- mai,|
 D,4 G,4 C,4 F,3 E, | D,3 E, F,3 G, A,3 B, C3 C | F,8 z4 B,,4- | B,,4 B,,4 _E,8 | %64
w: ch'in- darn' ac- cor- *|* * * * * * * di-|la. Hog-|* gi già|
"^b" _E,4 C,4 D,4 D,3 D, | =E,2 F,3 F, F,2 z4 F,3 F, | G,2 A,3 A, A,2 z2 F,2 F,4 | %67
w: non si can- ta,\_an- zi|si pre- li- a, an- zi|si pre- li- a. Ces- sa-|
 C,2 F,2 F,3 E, D,2 G,2 C,4 | z2 F,2 B,,8 B,,4 | B,,16 | F,,8 z8 | z16 | F,4 A,4 z4 z2 F,2 | %73
w: te, ces- sa- te\_ho- mai, per Dio,|ces- sa- te\_al-|quan-|to;||e tu, e|
 A,3 A, B,2 A,2 G,3 G, F,4 | z2 F,2 F,6 F,2 B,,2 F,,2 | C,6 C,2 F,,8 || z16 | z16 | z16 | z16 | %80
w: tu ris- pon- di,\_O- fe- li- a,|e tu ris- pon- di,\_O-|fe- li- a.|||||
 z16 | z16 | z16 | F,8 F,6 F,2 | F,4 E,4 F,8 | F,4 E,3 D, C,4 C,4 | %86
w: |||E'l se- mi-|ca- pro Pan|al- za le cor- na|
 C,2 C,D, E,2 F,2 E,3 F, G,2 F,2 | C,4 C,4 F,4 A,2 G,2 | F,3 E, D,3 E, F,3 D, E,4 | F,8 z8 | z16 | %91
w: a la sam- po- gna mia so- no- ra\_e|bel- la, e cor- re\_e|sal- ta\_e fug- ge\_e poi ri- tor-|na.||
 z16 | z16 | z16 | z16 | z16 | z8 F,8 | F,4 G,4 A,6 G,2 | F,2 E,2 F,6 E,2 F,4 | C,8 E,4 E,4 | %100
w: |||||Tir-|re- na mia col|sos- pi- rar m'uc- ci-|de, quan- do|
 F,2 G,4 F,2 E,3 F, G,2 F,2 | E,4 C,4 F,4 A,3 G, | F,2 E,2 D,3 C, D,2 F,2 E,4 | F,8 z8 | z16 | %105
w: par che vèr me con gl'oc- chi|di- ca: Chi dal mio|fi- do\_a- mant' hor mi di- vi-|de?||
 z4 F,4 F,4 G,4 | F,8 F,4 z4 | z8 z2 C,2 F,3 F, | E,2 E,2 D,4 C,8 | z16 | %110
w: Et io nel|bos- co|un bel gio-|ven- co\_a- der- bo||
 z4 z2 C,2 E,2 D,2 E,3 D, | E,2 F,2 G,2 F,2 E,4 C,4 | z16 | z8 z2 F,2 A,3 G, | %114
w: per la mia donn'; il|qual fra tut- ti\_i to- ri||in- ce- de|
 F,2 F,2 C,3 C, D,2 F,2 E,4 | F,8 |[M:3/2] F,6 G,2 F,4 | B,,6 A,,2 B,,4- | B,,2 A,,2 G,,4 C,4 | %119
w: con le cor- na\_al- to\_e su- per-|bo.|Fres- che ghir-|lan- de di|_ no- vel- li|
 F,,8 F,,4 | F,4 F,4 G,4 | C,6 C,2 F,4- | F,2 A,2 G,6 G,2 |[M:4/2] C,4 C,4 F,2 F,2 _E,4- | %124
w: fio- ri|i vos- tri\_al-|ta- ri,\_o sa-|* cre Nin- fe,\_ha-|vran- no, se pie- to-|
 E,4"^b" _E,2 F,2 C,3 A,, B,,2 F,,2 | C,4 F,,4 F,2 F,2 _E,4- | E,4"^b" _E,2 F,2 C,3 A,, B,,2 F,,2 | %127
w: * se sa- re- te\_a' nos- tri\_a-|mo- ri, se pie- to-|* se sa- re- te\_a' nos- tri\_a-|
 C,8 F,,8 |] %128
w: mo- ri.|

